!!!OTL@@DE: Robin Adair
!!!COM: Irische Volksweise: Elleen-a-Roon
!!!ODT: 1702
!!!OMD: M&auml;ssig langsam
!!!LDT: 1825
!!!OCL: Erk, Ludwig
!!!GCO: Deutscher Liederschatz, Band 1
**kern	**kern	**kern
*staff3	*staff2	*staff1
*Ipiano	*Ipiano	*Ivox
*>[A,A,B]	*>[A,A,B]	*>[A,A,B]
*>A	*>A	*>A
=1-	=1-	=1-
*clefF4	*clefG2	*clefG2
*k[f#c#g#]	*k[f#c#g#]	*k[f#c#g#]
*A:	*A:	*A:
*M3/4	*M3/4	*M3/4
*MM64	*MM64	*MM64
2.AA\ 2.A\	4c#/ 4e/	4e/
.	4d/ 4f#/	4f#/
.	4B/ 4g#/	4g#/
=2	=2	=2
2.AA\ 2.A\	4.c#/ 4.a/	4.a/
.	8e/ 8b/	8b\
.	4a/ 4cc#/	4cc#\
=3	=3	=3
*	*^	*
4C#\ 4A\	(16e/LK	4e\	(16e/LK
.	8.a/J)	.	8.a/J)
4D\ 4A\	(16f#/LK	4f#\	(16f#/LK
.	8.a/J)	.	8.a/J)
4E\	(16g#/LK	4d\ 4e\	(16g#/LK
.	8.b/J)	.	8.b/J)
*	*v	*v	*
=4	=4	=4
4A\	2.c#/ 2.e/ 2.a/	2a/
4E\	.	.
4AA/	.	4r
=5:|!	=5:|!	=5:|!
*>B	*>B	*>B
*^	*	*
4AA/	2AA\	4e/ 4cc#/	4cc#\
4A/	.	4e/ 4cc#/	4cc#\
4F#/	4AA#\	4e/ 4cc#/	4cc#\
*v	*v	*	*
=6	=6	=6
*	*^	*
4BB/	4.dd/	2d\	4.dd\
4F#\	.	.	.
.	8f#/	.	8f#/
4B\	4f#/	4d\	4f#/
=7	=7	=7	=7
*^	*	*	*
4r	2E\	4e/	2c#\	4e/
4A/	.	4.cc#/	.	4.cc#\
4G#/	4E#\	.	4d\	.
.	.	8b/	.	8b\
=8	=8	=8	=8	=8
2.A/	4F#\	4.a/	4.c#\	4.a/
.	8En\L	.	.	.
.	8D\J	8f#/	8d\	8f#/
.	4C#\	(8e/L	4e\	4e/
.	.	16a/L	.	.
.	.	16cc#/JJ)	.	.
*v	*v	*	*	*
=9	=9	=9	=9
(8c#\L	(4ee/	2a\	4ee\
8A\J	.	.	.
8f#\L	8dd/L	.	8dd\L
8e\	8cc#/	.	8cc#\J
8d\	8b/	8f#\L	8b/L
8c#\J)	8a/J)	8e\J	8a/J
=10	=10	=10	=10
*^	*	*	*
4.c#/	4.F#\	4.a/	4.f#\	4.a/
8F#/	8D\	8b/	8f#\	8b\
4G#;/	4C#;\	4cc#;/	4e#;\	4cc#;\
*v	*v	*	*	*
=11	=11	=11	=11
4C#\ 4A\	(16en/LK	4en\	(16e/LK
.	8.a/J)	.	8.a/J)
4D\ 4A\	16f#/LK	(4f#\	(16f#/LK
.	8.a/J)	.	8.a/J)
4E\	(16g#/LK	4d\ 4e\	(16g#/LK
.	8.b/J)	.	8.b/J)
*	*v	*v	*
=12	=12	=12
2AA\ 2A\	2c#/ 2e/ 2a/	2a/
4r	4r	4r
==	==	==
*-	*-	*-
!!!ENC: Craig Stuart Sapp
!!!END: 2004/06/08/
!!!EFL: 098/651
